X:86
T:Gooses Minuet. LIT.086, The
M:3/4
Q:1/4=145
L:1/8
B:Wm. Litten MS, 1802
Z:Village Music Project 2017 Anne Wride
K:G
((3def) | g4 bg | a2f2d2 | e4 ge | d2B2G2 | c4 ec | B4 dB | A2G2F2 | G4 :|
|: D2 | D2 GBGB | D2 AcAc | D2 GBGB | AGFE D2 | D2 GBGB | D2 AcAc | ((3edc) B2A2 | G4 :|

